X: 179
T:The Haunted House
M:6/8
L:1/8
C:Vincent Broderick
S:The Turoe Stone
Z:Rachel Marsh
K:G
D | G3 AGA | BGE EDE | GBd egd | ege edB | G3 AGA | BGE EDE | GBd ege |
dBA G2 D :||
GBd egd | ege edB | GBd ded | ded dBA |1 GBd dgd | ege edB | GBd ege | d
BA G3 :|
|2 G3 AGA | BGE EDE GBd ege | dBA G3 ||
<end>
<start>
